!!!COM: Fux, Johann Joseph
!!!OMD: Gradus ad Parnassum Exercise
!!!YEC: CC0 1.0 Universal (Public Domain). Mark Gotham and FourScoreAndMore.org waive all rights to this document.
**kern	**kern	**kern	**kern
*part4	*part3	*part2	*part1
*staff4	*staff3	*staff2	*staff1
*I"4	*I"3	*I"2	*I"1
*I'Pno	*I'Pno	*I'Pno	*I'Pno
!!LO:LB:g=z
*clefF4	*clefGv2	*clefG2	*clefG2
*k[]	*k[]	*k[]	*k[]
!!LO:TX:omd:t=
*M4/4	*M4/4	*M4/4	*M4/4
=75	=75	=75	=75
!	!	!	!LO:TX:a:t=Fig. 169; Species&colon; 1; Modal final&colon; f; Cantus firmus&colon; 2
1F	1c	1f	1a
=76	=76	=76	=76
1E	1c	1g	1g
=77	=77	=77	=77
1F	1c	1a	1f
=78	=78	=78	=78
1D	1d	1f	1a
=79	=79	=79	=79
1BB-X	1f	1d	1b-X
=80	=80	=80	=80
1GG	1g	1e	1bn
=81	=81	=81	=81
1D	1f	1f	1a
=82	=82	=82	=82
1AA	1e	1cc	1a
=83	=83	=83	=83
1D	1d	1a	1f
=84	=84	=84	=84
1D	1A	1f	1f
=85	=85	=85	=85
1C	1c	1g	1e
=86	=86	=86	=86
1FF	1A	1f	1f
==	==	==	==
*-	*-	*-	*-
!!!software: music21 v.9.7.1
!!!software: music21 v.9.7.1
!!!software: MuseScore 3.4.2
!!!RDF**kern: > = above
!!!RDF**kern: < = below
